X: 116
T:Scotch Whiskey. HSJJ.117
M:4/4
L:1/8
Q:200
S:HSJ Jackson,Wyresdale,Lancs.1823
R:Reel
O:England
A:Lancashire
H:1823
Z:vmp.Chris Partington.
K:G
G/G/G Bd gdcB|c>BAG FAFD|G/G/G Bd gfge|fed^cd2D2:|!
|:d/d/d df gdcB|cEAG FAFD|B/B/B DB cdeg|dBAcB2G2:|]
